**kern	**text
*clefG2	*
*k[f#c#g#]	*
*M4/4	*
*MM160	*
=1	=1
1r	.
=2	=2
4r	.
[2cc#	う
8cc#L]	.
8aJ	う
=3	=3
4b	う
4cc#	う
2r	.
=4	=4
4r	.
8aaL	う
16gg#L	う
16ff#JJ	う
4cc#	る
[4cc#	る
=5	=5
4cc#]	.
8aL	あ
16g#L	あ
16f#JJ	あ
2c#	あ
=6	=6
1r	.
=7	=7
2r	.
8r	.
8f#'L	ぱ
8a	ぱ
8bJ	る
=8	=8
8cc#L	ぱ
8dd	ら
8cc#	ら
8ddJ	ら
4cc#'	ら
[4ee	あ
=9	=9
2ee]	.
2r	.
=10	=10
1r	.
=11	=11
8c#'L	れ
8c#J	と
8c#L	じょ
16.c#L	と
32c#JJk	ぶ
16c#LL	り
16c#J	ん
8c#J	ぎ
16c#KL	とぅ
[8aa	わ
32aaLL]	.
32aaJJJ	ん
=12	=12
1r	.
=13	=13
8c#'L	れ
8c#J	と
8c#L	じょ
16.c#L	じょ
32c#JJk	ふ
16c#LL	み
16c#J	ん
8c#'J	に
[8.aaL	ぽ
32aaLL]	.
32aaJJJ	ん
=14	=14
8r	.
8a'L	こ
8a	ど
8g#J	も
8g#L	だ
8g#'	ま
8g#	し
8f#J	の
=15	=15
8f#'L	ま
8f#	せ
8f#'	ま
8f#J	てぃ
4f#'	か
8r	.
16eLL	ば
16eJJ	れ
=16	=16
16f#KL	て
8f#	ん
16cc#Jk	だ
8r	.
8cc#	て
16cc#KL	そ
8cc#	ん
16f#Jk	な
8f#L	ん
8f#'J	て
=17	=17
32eeKLL	ぷ
16.ee	ら
16ee	い
[16cc#JJ	ど
8cc#L]	.
8cc#J	が
16cc#KL	な
8.cc#J	い
4f#'	や
=18	=18
8r	.
8f#L	ご
8f#'	り
8f#J	ぱ
8.f#L	け
16f#Jk	い
4f#	しょ
=19	=19
8f#L	き
8e	ど
8c#	り
8BJ	で
4r	.
8AL	た
[8f#J	か
=20	=20
8f#L]	.
16f#L	み
16f#JJ	の
16f#LL	け
16f#	ん
16f#	ぶ
16f#JJ	つ
8a'L	ば
8f#J	か
8f#L	り
16eL	じゃ
16eJJ	つ
=21	=21
8f#L	ま
8e	ん
8c#	ね
[8BJ	え
16B]	.
16r	.
8r	.
4r	.
=22	=22
8f#L	ほ
8e	ら
8f#	も
8f#J	お
4A'	と
8gg#'L	ふ
16eL	ま
16eJJ	ち
=23	=23
8f#'L	が
8e	て
8f#	じょ
8f#J	お
4A'	と
8gg#'L	ふ
8c#J	た
=24	=24
8aL	い
8a'	く
8a	つ
8aJ	に
8g#L	て
8g#	お
8a	か
8g#'J	け
=25	=25
8f#L	て
8B	ん
8c#	ん
8BJ	ん
8c#L	ん
8e	ん
8f#	う
8g#J	う
=26	=26
4a'	ま
4a	ま
8r	.
8a	や
8r	.
8e	ぱ
=27	=27
8.f#L	た
16f#Jk	し
4f#	わ
8r	.
8f#L	こ
8f#	ん
8f#J	な
=28	=28
8a'L	と
8a	こ
8a	ろ
8cc#J	じゃ
8aL	お
8a	わ
8a	れ
[8aJ	な
=29	=29
8aL]	.
8aJ	い
4r	.
4r	.
8r	.
8g#	ぬ
=30	=30
8aL	る
8a'J	く
4cc#	て
8r	.
8aL	き
8a'	が
8aJ	ふ
=31	=31
4ee	れ
8cc#L	そ
8bJ	お
8r	.
8b	ご
8r	.
8b	こ
=32	=32
8cc#L	あ
8f#'	そ
8f#	び
8f#J	も
8cc#L	し
8f#	ば
8f#	い
8f#J	も
=33	=33
8cc#L	さ
8cc#	よ
8cc#	な
8cc#J	ら
8r	.
8cc#	ず
8r	.
8f#	と
=34	=34
8cc#L	こ
8cc#	の
8cc#	ま
[8cc#J	ま
16cc#]	.
16r	.
8ee	な
8f#'L	ん
8f#J	て
=35	=35
1ee	さ
=36	=36
8r	.
8cc#L	い
8cc#	ら
8cc#J	ん
8eeL	な
8cc#J	い
4a	よ
=37	=37
4f#'	だ
4f#'	だ
8f#L	だ
8e	あ
8f#	た
8g#J	し
=38	=38
4a'	お
8.a'L	と
16aJk	ん
8aL	な
8g#	に
8a	な
8bJ	る
=39	=39
4cc#'	す
8cc#L	い
8bJ	も
8cc#L	あ
16eeL	ま
16cc#JJ	い
8aL	も
[8g#J	か
=40	=40
8g#L]	.
8g#	み
8ee	わ
8g#J	け
8aL	て
8g#J	い
4c#'	ま
=41	=41
4f#'	ぱ
4f#'	ぱ
8f#L	ぱ
8e	か
8f#	わ
8g#J	る
=42	=42
4a'	じ
4a	だ
8aL	い
8cc#	わ
8ee	る
8ee#XJ	い
=43	=43
8ff#L	こ
8f#J	と
4ff#'	ば
8ff#L	か
8f#	り
8ff#	じゃ
[8aaJ	な
=44	=44
8aaL]	.
8bb	い
8aa	で
8gg#J	しょ
8aaL	お
8e	か
8ee	こ
8cc#J	も
=45	=45
8r	.
8eL	つ
8ee	み
8cc#J	も
8r	.
8eL	ば
8ee	つ
8cc#J	も
=46	=46
8r	.
8eL	す
8ee	べ
8cc#J	て
8r	.
8eL	す
8ee	で
8ff#J	で
=47	=47
8r	.
8eL	あ
8ee	い
8ff#J	で
8r	.
8f#L	い
8ee	き
8ff#J	ぬ
=48	=48
8ff#L	い
8ee	て
8cc#	や
8bJ	り
8cc#L	か
8ee	え
8g#	す
[8aJ	わ
=49	=49
2a]	.
8bL	え
8cc#J	え
[4cc#	え
=50	=50
16cc#KL]	.
8.cc#'J	い
4r	.
4r	.
4ff#	ふ
=51	=51
8aL	や
8g#J	う
4g#	ん
4g#	わ
4a	あ
=52	=52
8g#	あ
4.f#	あ
2r	.
=53	=53
4r	.
*clefF4	*
4B	いぇ
8.BL	ちょ
[16BJk	は
8BL]	.
8B'J	つ
=54	=54
16r	.
16BLL	た
16B	し
16BJJ	た
8BL	ち
8eJ	わ
8.BL	の
16BJk	だ
4B'	う
*clefG2	*
=55	=55
16f#LL	み
16e	ど
16B	り
16G#JJ	の
16ALL	あ
*clefF4	*
16B	い
16B	つ
16BJJ	に
8e'L	ば
16BL	か
16AJJ	か
8B'L	ま
16AL	て
16AJJ	ん
=56	=56
4A'	ね
4r	.
4r	.
4c#	う
=57	=57
4r	.
4B	さ
8BL	ば
16BL	ん
[16eJJ	あ
32eLLL]	.
32eJ	ぷ
16B	い
16B	つ
16BJJ	に
*clefG2	*
=58	=58
8f#'L	な
16BL	た
16AJJ	ら
16ALL	も
16B	ら
*clefF4	*
16B	え
16BJJ	る
8.BL	ご
[16BJk	か
16BKL]	.
8.B'J	く
=59	=59
16BLL	あ
*clefG2	*
16f#	か
16f#	ぺ
16f#JJ	ん
16eLL	い
16f#	れ
16e	て
16BJJ	よ
16eLL	ど
16eJ	こ
8BJ	が
8eL	だ
8BJ	め
=60	=60
16eLL	な
16eJ	ん
8BJ	で
8c#L	す
8f#J	か
8r	.
8c#	さ
8c#L	け
16c#L	お
16c#JJ	ん
=61	=61
8dL	な
8c#	か
8c#	ね
8bJ	ちゃ
8r	.
8c#'L	や
8c#'	ちゃ
8c#J	て
=62	=62
8dL	こ
8c#	ん
8c#	ぷ
8bJ	ら
8r	.
8c#L	ち
8c#'	る
8c#J	て
=63	=63
4c#	あ
2.B	あ
=64	=64
8r	.
8f#	じょ
16c#LL	だ
16c#	ん
*clefF4	*
16B	じゃ
16BJJ	ん
16AKL	ぶ
8c#'	ら
16c#Jk	く
8.BL	じょ
16BJk	く
=65	=65
8r	.
*clefG2	*
16c#LL	な
16c#JJ	か
16c#LL	ゆ
16c#	び
16c#	た
16c#JJ	て
16c#LL	た
16c#	く
16c#	な
16c#JJ	る
8dL	よ
16c#L	な
16c#JJ	じ
=66	=66
8c#L	じょ
16c#L	あ
16c#JJ	り
16c#LL	す
16c#	ぎ
16c#	て
16c#JJ	ゆ
16dLL	び
16c#	が
16c#	た
16c#JJ	り
8c#L	ね
16c#L	か
16c#JJ	ら
=67	=67
16c#LL	へ
16c#J	ん
8eJ	ざ
4r	.
2r	.
=68	=68
2r	.
48c#KLL	ぶ
24.c#	り
24c#J	ん
8c#'J	ぎ
8.c#L	ちょ
16c#Jk	ん
=69	=69
4a'	ま
4a	ま
8r	.
8a	な
8aL	ん
16f#L	か
16f#JJ	い
=70	=70
4f#	ら
8.f#L	な
16f#Jk	い
8r	.
8f#L	ほ
8f#	し
8f#J	が
=71	=71
8aL	り
8a	ま
8a	す
8cc#J	し
8bL	ぬ
8a	ま
8a	で
[8aJ	わ
=72	=72
4a]	.
8c#L	ん
[8BJ	ん
8BL]	.
8c#J	ん
8r	.
16c#LL	の
16c#JJ	び
=73	=73
8c#'L	た
8a	せ
8a'	た
8aJ	け
8aL	そ
8cc#J	だ
8r	.
8g#	た
=74	=74
8g#L	ま
8g#	ち
8g#	に
8g#J	な
8g#'L	げ
8f#	き
8e	す
8f#J	み
=75	=75
4a'	せ
8aL	ば
8g#J	わ
8aL	こ
8b	お
8cc#	か
8bJ	ら
=76	=76
8r	.
8cc#'L	か
8cc#	く
8cc#J	ご
8cc#L	し
8ee	と
8a	け
8g#'J	よ
=77	=77
4f#'	だ
4f#'	だ
8f#L	だ
8e	ぼ
8f#	く
8g#J	ら
=78	=78
4a'	お
8.a'L	と
16aJk	ん
8aL	な
8g#	に
8a	な
8bJ	る
=79	=79
8cc#L	か
16cc#L	う
16cc#JJ	ん
8cc#L	た
8bJ	あ
8cc#L	ね
8ee	ら
8a	い
8g#J	さ
=80	=80
8g#'L	い
8g#	て
8ee	い
8g#J	な
8aL	ひ
8g#J	び
4c#'	に
=81	=81
8f#L	た
8f#'	ん
8f#	た
8f#'J	ん
8f#'L	と
8e	か
8f#	ま
8g#'J	す
=82	=82
4a'	ち
4a	げ
8aL	き
8cc#	だ
8ee	れ
8ee#XJ	も
=83	=83
8ff#L	よ
8f#	め
8ff#	な
8ff#'J	い
8ff#L	さ
8f#	き
8ff#	ま
[8aaJ	だ
=84	=84
8aaL]	.
8bb	い
8aa	こ
8gg#J	で
8aaL	しょ
8e	ば
8ee	ぐ
8cc#J	も
=85	=85
8r	.
8eL	ろ
8ee	す
8cc#J	も
8r	.
8eL	ず
8ee	れ
8cc#J	も
=86	=86
8r	.
8eL	す
8ee	べ
8cc#J	て
8r	.
8eL	す
8ee	で
8ff#J	で
=87	=87
8r	.
8f#L	い
8ee	き
8ff#J	て
8r	.
8f#L	い
8ee	き
8ff#J	ぬ
=88	=88
8ff#L	い
8ee	て
8cc#	く
8bJ	つ
8cc#L	が
8ee	え
8g#	す
[8aJ	よ
=89	=89
1a]	.
=90	=90
1r	.
=91	=91
1r	.
=92	=92
1r	.
=93	=93
1r	.
=94	=94
1r	.
=95	=95
1r	.
=96	=96
1r	.
=97	=97
1r	.
=98	=98
1r	.
=99	=99
4f#'	だ
4f#'	だ
8f#L	だ
8e'	く
8f#	だ
8g#J	ら
=100	=100
8.aL	な
16aJk	い
4r	.
4r	.
8aL	こ
8bJ	と
=101	=101
4cc#'	ば
4cc#'	か
8cc#L	が
8b'	ゆ
8a	ず
8bJ	れ
=102	=102
8.cc#L	な
16cc#Jk	い
4r	.
8r	.
8e'L	わ
8ee	か
8bJ	る
=103	=103
4a'	か
4a'	あ
8aL	た
8a	し
8cc#	の
8a'J	び
=104	=104
8.g#L	が
16g#Jk	く
4r	.
4r	.
8f#L	こ
8eJ	の
=105	=105
4.f#	ば
[8g#	か
8g#]	.
8r	.
4a	しょ
=106	=106
8r	.
4.b	じ
8aL	き
8aJ	ん
4g#	な
=107	=107
8g#	こ
4a	ぶ
16g#LL	し
16g#JJ	ひ
4f#	と
8eL	つ
8c#J	が
=108	=108
8r	.
8c#L	い
8c#	ち
8c#J	ず
8c#L	な
8c#'J	ん
8.c#L	で
16c#Jk	す
=109	=109
8g#	き
4a	り
8g#	ふ
4.f#	だ
8c#	が
=110	=110
8r	.
8c#'L	ぐ
8c#'	ちょ
8c#J	く
8c#L	な
8c#'J	ん
[8.c#L	で
32c#LL]	.
32c#JJJ	す
=111	=111
8b	が
4cc#	な
8b	る
4a'	れ
8eeL	と
[8cc#J	お
=112	=112
2cc#]	.
4r	.
4f#	い
=113	=113
4ff#	ち
8r	.
[8ee	ぬ
8ee]	.
8r	.
[4cc#	け
=114	=114
8cc#]	.
4.b	よ
4ee	さ
4ee#X'	ら
=115	=115
4ff#	ば
4r	.
2r	.
=116	=116
1r	.
=117	=117
1r	.
=118	=118
2r	.
4r	.
4aa	あ
=119	=119
1r	.
=120	=120
1r	.
=121	=121
1r	.
=122	=122
1r	.
=123	=123
1r	.
=124	=124
1r	.
=125	=125
1r	.
=126	=126
1r	.
=127	=127
1r	.
=128	=128
8r	.
8cc#L	こ
8cc#	ん
8cc#J	な
16eeLL	も
16eeJ	ん
8cc#J	じゃ
8.aL	な
16g#Jk	い
=129	=129
4f#'	だ
4f#'	だ
8f#L	だ
8e	あ
8f#	た
8g#J	し
=130	=130
4a'	お
8.a'L	と
16aJk	ん
8aL	な
8g#	に
8a	な
8bJ	る
=131	=131
4cc#'	す
8cc#L	い
8bJ	も
8cc#L	あ
16eeL	ま
16cc#JJ	い
8a'L	も
[8g#J	か
=132	=132
8g#L]	.
8g#	み
8ee	わ
8g#J	け
8aL	て
8g#J	い
4c#'	ま
=133	=133
8f#L	さ
8f#'	ん
8f#	さ
8f#'J	ん
8f#L	ま
8e	じ
8f#	わ
8g#J	る
=134	=134
8aL	み
8a'J	ん
4a	ら
8aL	い
8cc#	も
8ee	お
8ee#XJ	こ
=135	=135
8ff#L	ど
8f#J	も
4ff#'	じゃ
8ff#L	な
8f#	い
8ff#	の
[8aaJ	わ
=136	=136
8aaL]	.
8bb	か
8aa	る
8gg#J	で
8aaL	しょ
8e	じ
8ee	だ
8cc#J	い
=137	=137
8r	.
8eL	き
8ee	か
8cc#J	い
8r	.
8eL	ま
8ee	あ
8cc#J	て
=138	=138
8r	.
8eL	く
8ee	れ
8cc#J	な
8cc#'L	い
8e	す
8ee	で
8ff#J	で
=139	=139
16r	.
16eKL	す
8eJ	て
8eeL	み
8ff#J	で
8r	.
8f#L	い
8ee	き
8ff#J	ぬ
=140	=140
8ff#L	い
8ee	て
8cc#	じょ
8bJ	お
8cc#L	と
8ee	お
8g#	だ
[8aJ	わ
=141	=141
2a]	.
8bL	あ
8cc#J	あ
[4cc#	あ
=142	=142
4cc#]	.
4r	.
2ee	あ
=143	=143
1ff#	あ
=144	=144
8r	.
8ff#L	あ
8ff#	い
8ff#J	あ
4aa	る
4bb	じ
=145	=145
[2.ff#	だ
8.ff#L]	.
16ff#Jk	い
=146	=146
1r	.
=147	=147
1r	.
=148	=148
1r	.
=149	=149
1r	.
=150	=150
1r	.
=151	=151
8f#L	そ
8e	れ
8f#	で
8eJ	わ
8f#L	み
8e	な
8f#	さ
8e'J	ま
=152	=152
8f#L	お
8e	さ
8f#	き
8eJ	に
8f#L	ば
8eJ	い
8.f#L	ぎ
16f#Jk	ず
==	==
*-	*-
